icons/file-edit-line.svg

<svg xmlns="http://www.w3.org/2000/svg" width="24" height="24" fill="none"><g clip-path="url(#a)"><g><path fill="#121212" d="M21 6.757L19 8.757V4H10V9H5V20H19V17.243L21 15.243V21.008C20.9997 21.2712 20.895 21.5235 20.7088 21.7095C20.5226 21.8955 20.2702 22 20.007 22H3.993C3.86168 21.9991 3.73182 21.9723 3.61085 21.9212C3.48987 21.8701 3.38015 21.7957 3.28794 21.7022C3.19573 21.6087 3.12284 21.4979 3.07344 21.3762C3.02403 21.2545 2.99908 21.1243 3 20.993V8L9.003 2H19.998C20.55 2 21 2.455 21 2.992V6.757ZM21.778 8.807L23.192 10.222L15.414 18L13.998 17.998L14 16.586L21.778 8.808V8.807Z"/></g></g><defs><clipPath id="a"><rect width="24" height="24" fill="white"/></clipPath></defs></svg>

<svg width="24" height="24" fill="none" xmlns="http://www.w3.org/2000/svg"><g clip-path="url(#a)"><path d="m21 6.757-2 2V4h-9v5H5v11h14v-2.757l2-2v5.765a.993.993 0 0 1-.993.992H3.993A1 1 0 0 1 3 20.993V8l6.003-6h10.995C20.55 2 21 2.455 21 2.992v3.765Zm.778 2.05 1.414 1.415L15.414 18l-1.416-.002.002-1.412 7.778-7.778v-.001Z" /></g><defs><clipPath id="a"><path fill="#fff" d="M0 0h24v24H0z"/></clipPath></defs></svg>
